( This file was created automatically using CamBam )
( http://www.brusselsprout.org/CAMBAM )
( 10/30/2009 10:42:05 AM )
( T0 : 0.125 )
G20
G90
G64
G00 Z0.01
( MOPProfile_2 )
( T0 : 0.125 )
M06 T0
M03
G00 X0.210938 Y1.773438
G01 F2 Z-0.02
G01 F7 X6.039063
G01 Y1.15625
G01 X0.210938
G01 Y1.773438
G01 F2 Z-0.04
G01 F7 X6.039063
G01 Y1.15625
G01 X0.210938
G01 Y1.773438
G01 F2 Z-0.06
G01 F7 X6.039063
G01 Y1.15625
G01 X0.210938
G01 Y1.773438
G01 F2 Z-0.08
G01 F7 X6.039063
G01 Y1.15625
G01 X0.210938
G01 Y1.773438
G01 F2 Z-0.1
G01 F7 X6.039063
G01 Y1.15625
G01 X0.210938
G01 Y1.773438
G01 F2 Z-0.12
G01 F7 X6.039063
G01 Y1.15625
G01 X0.210938
G01 Y1.773438
G01 F2 Z-0.14
G01 F7 X6.039063
G01 Y1.15625
G01 X0.210938
G01 Y1.773438
G01 F2 Z-0.16
G01 F7 X6.039063
G01 Y1.15625
G01 X0.210938
G01 Y1.773438
G01 F2 Z-0.18
G01 F7 X6.039063
G01 Y1.15625
G01 X0.210938
G01 Y1.773438
G01 F2 Z-0.2
G01 F7 X6.039063
G01 Y1.15625
G01 X0.210938
G01 Y1.773438
G01 F2 Z-0.22
G01 F7 X6.039063
G01 Y1.15625
G01 X0.210938
G01 Y1.773438
G01 F2 Z-0.24
G01 F7 X6.039063
G01 Y1.15625
G01 X0.210938
G01 Y1.773438
G01 F2 Z-0.251
G01 F7 X6.039063
G01 Y1.15625
G01 X0.210938
G01 Y1.773438
( MOPProfile_3 )
G00 Z0.01
G00 X-0.0625 Y2.05
G01 F2 Z-0.02
G01 F7 Y0
G03 X0 Y-0.0625 I0.0625 J0
G01 X6.25
G03 X6.3125 Y0 I0 J0.0625
G01 Y2.05
G03 X6.25 Y2.1125 I-0.0625 J0
G01 X0
G03 X-0.0625 Y2.05 I0 J-0.0625
G01 F2 Z-0.04
G01 F7 Y0
G03 X0 Y-0.0625 I0.0625 J0
G01 X6.25
G03 X6.3125 Y0 I0 J0.0625
G01 Y2.05
G03 X6.25 Y2.1125 I-0.0625 J0
G01 X0
G03 X-0.0625 Y2.05 I0 J-0.0625
G01 F2 Z-0.06
G01 F7 Y0
G03 X0 Y-0.0625 I0.0625 J0
G01 X6.25
G03 X6.3125 Y0 I0 J0.0625
G01 Y2.05
G03 X6.25 Y2.1125 I-0.0625 J0
G01 X0
G03 X-0.0625 Y2.05 I0 J-0.0625
G01 F2 Z-0.08
G01 F7 Y0
G03 X0 Y-0.0625 I0.0625 J0
G01 X6.25
G03 X6.3125 Y0 I0 J0.0625
G01 Y2.05
G03 X6.25 Y2.1125 I-0.0625 J0
G01 X0
G03 X-0.0625 Y2.05 I0 J-0.0625
G01 F2 Z-0.1
G01 F7 Y0
G03 X0 Y-0.0625 I0.0625 J0
G01 X6.25
G03 X6.3125 Y0 I0 J0.0625
G01 Y2.05
G03 X6.25 Y2.1125 I-0.0625 J0
G01 X0
G03 X-0.0625 Y2.05 I0 J-0.0625
G01 F2 Z-0.12
G01 F7 Y0
G03 X0 Y-0.0625 I0.0625 J0
G01 X6.25
G03 X6.3125 Y0 I0 J0.0625
G01 Y2.05
G03 X6.25 Y2.1125 I-0.0625 J0
G01 X0
G03 X-0.0625 Y2.05 I0 J-0.0625
G01 F2 Z-0.14
G01 F7 Y0
G03 X0 Y-0.0625 I0.0625 J0
G01 X6.25
G03 X6.3125 Y0 I0 J0.0625
G01 Y2.05
G03 X6.25 Y2.1125 I-0.0625 J0
G01 X0
G03 X-0.0625 Y2.05 I0 J-0.0625
G01 F2 Z-0.16
G01 F7 Y0
G03 X0 Y-0.0625 I0.0625 J0
G01 X6.25
G03 X6.3125 Y0 I0 J0.0625
G01 Y2.05
G03 X6.25 Y2.1125 I-0.0625 J0
G01 X0
G03 X-0.0625 Y2.05 I0 J-0.0625
G01 F2 Z-0.18
G01 F7 Y0
G03 X0 Y-0.0625 I0.0625 J0
G01 X6.25
G03 X6.3125 Y0 I0 J0.0625
G01 Y2.05
G03 X6.25 Y2.1125 I-0.0625 J0
G01 X0
G03 X-0.0625 Y2.05 I0 J-0.0625
G01 F2 Z-0.2
G01 F7 Y0
G03 X0 Y-0.0625 I0.0625 J0
G01 X6.25
G03 X6.3125 Y0 I0 J0.0625
G01 Y2.05
G03 X6.25 Y2.1125 I-0.0625 J0
G01 X0
G03 X-0.0625 Y2.05 I0 J-0.0625
G01 F2 Z-0.22
G01 F7 Y0
G03 X0 Y-0.0625 I0.0625 J0
G01 X6.25
G03 X6.3125 Y0 I0 J0.0625
G01 Y2.05
G03 X6.25 Y2.1125 I-0.0625 J0
G01 X0
G03 X-0.0625 Y2.05 I0 J-0.0625
G01 F2 Z-0.24
G01 F7 Y0
G03 X0 Y-0.0625 I0.0625 J0
G01 X6.25
G03 X6.3125 Y0 I0 J0.0625
G01 Y2.05
G03 X6.25 Y2.1125 I-0.0625 J0
G01 X0
G03 X-0.0625 Y2.05 I0 J-0.0625
G01 F2 Z-0.251
G01 F7 Y0
G03 X0 Y-0.0625 I0.0625 J0
G01 X6.25
G03 X6.3125 Y0 I0 J0.0625
G01 Y2.05
G03 X6.25 Y2.1125 I-0.0625 J0
G01 X0
G03 X-0.0625 Y2.05 I0 J-0.0625
( MOPProfile_4 )
G00 Z0.01
G00 X1.21875 Y0.71875
G01 F2 Z-0.02
G01 F7 X1.53125
G01 Y0.59375
G01 X1.21875
G01 Y0.71875
G01 F2 Z-0.04
G01 F7 X1.53125
G01 Y0.59375
G01 X1.21875
G01 Y0.71875
G01 F2 Z-0.06
G01 F7 X1.53125
G01 Y0.59375
G01 X1.21875
G01 Y0.71875
G01 F2 Z-0.08
G01 F7 X1.53125
G01 Y0.59375
G01 X1.21875
G01 Y0.71875
G01 F2 Z-0.1
G01 F7 X1.53125
G01 Y0.59375
G01 X1.21875
G01 Y0.71875
G01 F2 Z-0.12
G01 F7 X1.53125
G01 Y0.59375
G01 X1.21875
G01 Y0.71875
G01 F2 Z-0.14
G01 F7 X1.53125
G01 Y0.59375
G01 X1.21875
G01 Y0.71875
G01 F2 Z-0.16
G01 F7 X1.53125
G01 Y0.59375
G01 X1.21875
G01 Y0.71875
G01 F2 Z-0.18
G01 F7 X1.53125
G01 Y0.59375
G01 X1.21875
G01 Y0.71875
G01 F2 Z-0.2
G01 F7 X1.53125
G01 Y0.59375
G01 X1.21875
G01 Y0.71875
G01 F2 Z-0.22
G01 F7 X1.53125
G01 Y0.59375
G01 X1.21875
G01 Y0.71875
G01 F2 Z-0.24
G01 F7 X1.53125
G01 Y0.59375
G01 X1.21875
G01 Y0.71875
G01 F2 Z-0.251
G01 F7 X1.53125
G01 Y0.59375
G01 X1.21875
G01 Y0.71875
( MOPProfile_5 )
G00 Z0.01
G00 X4.34375
G01 F2 Z-0.02
G01 F7 X4.65625
G01 Y0.59375
G01 X4.34375
G01 Y0.71875
G01 F2 Z-0.04
G01 F7 X4.65625
G01 Y0.59375
G01 X4.34375
G01 Y0.71875
G01 F2 Z-0.06
G01 F7 X4.65625
G01 Y0.59375
G01 X4.34375
G01 Y0.71875
G01 F2 Z-0.08
G01 F7 X4.65625
G01 Y0.59375
G01 X4.34375
G01 Y0.71875
G01 F2 Z-0.1
G01 F7 X4.65625
G01 Y0.59375
G01 X4.34375
G01 Y0.71875
G01 F2 Z-0.12
G01 F7 X4.65625
G01 Y0.59375
G01 X4.34375
G01 Y0.71875
G01 F2 Z-0.14
G01 F7 X4.65625
G01 Y0.59375
G01 X4.34375
G01 Y0.71875
G01 F2 Z-0.16
G01 F7 X4.65625
G01 Y0.59375
G01 X4.34375
G01 Y0.71875
G01 F2 Z-0.18
G01 F7 X4.65625
G01 Y0.59375
G01 X4.34375
G01 Y0.71875
G01 F2 Z-0.2
G01 F7 X4.65625
G01 Y0.59375
G01 X4.34375
G01 Y0.71875
G01 F2 Z-0.22
G01 F7 X4.65625
G01 Y0.59375
G01 X4.34375
G01 Y0.71875
G01 F2 Z-0.24
G01 F7 X4.65625
G01 Y0.59375
G01 X4.34375
G01 Y0.71875
G01 F2 Z-0.251
G01 F7 X4.65625
G01 Y0.59375
G01 X4.34375
G01 Y0.71875
( MOPDrill_6 )
G00 Z0.01
G00 X0.6875 Y0.46875
G01 F2 Z0
G01 F7 X0.684441 Y0.449436 Z-0.00561
G01 X0.675564 Y0.432013 Z-0.01122
G01 X0.661737 Y0.418186 Z-0.01683
G01 X0.644314 Y0.409309 Z-0.02244
G01 X0.625 Y0.40625 Z-0.02805
G01 X0.605686 Y0.409309 Z-0.03366
G01 X0.588263 Y0.418186 Z-0.03927
G01 X0.574436 Y0.432013 Z-0.04488
G01 X0.565559 Y0.449436 Z-0.05049
G01 X0.5625 Y0.46875 Z-0.0561
G01 X0.565559 Y0.488064 Z-0.06171
G01 X0.574436 Y0.505487 Z-0.06732
G01 X0.588263 Y0.519314 Z-0.07293
G01 X0.605686 Y0.528191 Z-0.07854
G01 X0.625 Y0.53125 Z-0.08415
G01 X0.644314 Y0.528191 Z-0.08976
G01 X0.661737 Y0.519314 Z-0.09537
G01 X0.675564 Y0.505487 Z-0.10098
G01 X0.684441 Y0.488064 Z-0.10659
G01 X0.6875 Y0.46875 Z-0.1122
G01 X0.684441 Y0.449436 Z-0.11781
G01 X0.675564 Y0.432013 Z-0.12342
G01 X0.661737 Y0.418186 Z-0.12903
G01 X0.644314 Y0.409309 Z-0.13464
G01 X0.625 Y0.40625 Z-0.14025
G01 X0.605686 Y0.409309 Z-0.14586
G01 X0.588263 Y0.418186 Z-0.15147
G01 X0.574436 Y0.432013 Z-0.15708
G01 X0.565559 Y0.449436 Z-0.16269
G01 X0.5625 Y0.46875 Z-0.1683
G01 X0.565559 Y0.488064 Z-0.17391
G01 X0.574436 Y0.505487 Z-0.17952
G01 X0.588263 Y0.519314 Z-0.18513
G01 X0.605686 Y0.528191 Z-0.19074
G01 X0.625 Y0.53125 Z-0.19635
G01 X0.644314 Y0.528191 Z-0.20196
G01 X0.661737 Y0.519314 Z-0.20757
G01 X0.675564 Y0.505487 Z-0.21318
G01 X0.684441 Y0.488064 Z-0.218789
G01 X0.6875 Y0.46875 Z-0.224399
G01 X0.684441 Y0.449436 Z-0.230009
G01 X0.675564 Y0.432013 Z-0.235619
G01 X0.661737 Y0.418186 Z-0.241229
G01 X0.644314 Y0.409309 Z-0.246839
G01 X0.625 Y0.40625 Z-0.251
G01 X0.605686 Y0.409309
G01 X0.588263 Y0.418186
G01 X0.574436 Y0.432013
G01 X0.565559 Y0.449436
G01 X0.5625 Y0.46875
G01 X0.565559 Y0.488064
G01 X0.574436 Y0.505487
G01 X0.588263 Y0.519314
G01 X0.605686 Y0.528191
G01 X0.625 Y0.53125
G01 X0.644314 Y0.528191
G01 X0.661737 Y0.519314
G01 X0.675564 Y0.505487
G01 X0.684441 Y0.488064
G01 X0.6875 Y0.46875
G01 X0.684441 Y0.449436
G01 X0.675564 Y0.432013
G01 X0.661737 Y0.418186
G01 X0.644314 Y0.409309
G01 X0.625 Y0.40625
G00 Z0.01
G00 X3.8125 Y0.46875
G01 F2 Z0
G01 F7 X3.809441 Y0.449436 Z-0.00561
G01 X3.800564 Y0.432013 Z-0.01122
G01 X3.786737 Y0.418186 Z-0.01683
G01 X3.769314 Y0.409309 Z-0.02244
G01 X3.75 Y0.40625 Z-0.02805
G01 X3.730686 Y0.409309 Z-0.03366
G01 X3.713263 Y0.418186 Z-0.03927
G01 X3.699436 Y0.432013 Z-0.04488
G01 X3.690559 Y0.449436 Z-0.05049
G01 X3.6875 Y0.46875 Z-0.0561
G01 X3.690559 Y0.488064 Z-0.06171
G01 X3.699436 Y0.505487 Z-0.06732
G01 X3.713263 Y0.519314 Z-0.07293
G01 X3.730686 Y0.528191 Z-0.07854
G01 X3.75 Y0.53125 Z-0.08415
G01 X3.769314 Y0.528191 Z-0.08976
G01 X3.786737 Y0.519314 Z-0.09537
G01 X3.800564 Y0.505487 Z-0.10098
G01 X3.809441 Y0.488064 Z-0.10659
G01 X3.8125 Y0.46875 Z-0.1122
G01 X3.809441 Y0.449436 Z-0.11781
G01 X3.800564 Y0.432013 Z-0.12342
G01 X3.786737 Y0.418186 Z-0.12903
G01 X3.769314 Y0.409309 Z-0.13464
G01 X3.75 Y0.40625 Z-0.14025
G01 X3.730686 Y0.409309 Z-0.14586
G01 X3.713263 Y0.418186 Z-0.15147
G01 X3.699436 Y0.432013 Z-0.15708
G01 X3.690559 Y0.449436 Z-0.16269
G01 X3.6875 Y0.46875 Z-0.1683
G01 X3.690559 Y0.488064 Z-0.17391
G01 X3.699436 Y0.505487 Z-0.17952
G01 X3.713263 Y0.519314 Z-0.18513
G01 X3.730686 Y0.528191 Z-0.19074
G01 X3.75 Y0.53125 Z-0.19635
G01 X3.769314 Y0.528191 Z-0.20196
G01 X3.786737 Y0.519314 Z-0.20757
G01 X3.800564 Y0.505487 Z-0.21318
G01 X3.809441 Y0.488064 Z-0.218789
G01 X3.8125 Y0.46875 Z-0.224399
G01 X3.809441 Y0.449436 Z-0.230009
G01 X3.800564 Y0.432013 Z-0.235619
G01 X3.786737 Y0.418186 Z-0.241229
G01 X3.769314 Y0.409309 Z-0.246839
G01 X3.75 Y0.40625 Z-0.251
G01 X3.730686 Y0.409309
G01 X3.713263 Y0.418186
G01 X3.699436 Y0.432013
G01 X3.690559 Y0.449436
G01 X3.6875 Y0.46875
G01 X3.690559 Y0.488064
G01 X3.699436 Y0.505487
G01 X3.713263 Y0.519314
G01 X3.730686 Y0.528191
G01 X3.75 Y0.53125
G01 X3.769314 Y0.528191
G01 X3.786737 Y0.519314
G01 X3.800564 Y0.505487
G01 X3.809441 Y0.488064
G01 X3.8125 Y0.46875
G01 X3.809441 Y0.449436
G01 X3.800564 Y0.432013
G01 X3.786737 Y0.418186
G01 X3.769314 Y0.409309
G01 X3.75 Y0.40625
( MOPDrill_7 )
G81 X4.5 Y0.226563 Z-0.251 R0.01 F2
G81 X1.375 Z-0.251 R0.01
G81 X3.125 Y0.296875 Z-0.251 R0.01
( MOPDrill_8 )
G00 Z0.01
G00 X2.450298 Y0.5625
G01 Z0
G01 F7 X2.446612 Y0.539232 Z-0.006759
G01 X2.435917 Y0.518241 Z-0.013517
G01 X2.419259 Y0.501583 Z-0.020276
G01 X2.398268 Y0.490888 Z-0.027035
G01 X2.375 Y0.487203 Z-0.033793
G01 X2.351732 Y0.490888 Z-0.040552
G01 X2.330741 Y0.501583 Z-0.047311
G01 X2.314083 Y0.518241 Z-0.05407
G01 X2.303388 Y0.539232 Z-0.060828
G01 X2.299703 Y0.5625 Z-0.067587
G01 X2.303388 Y0.585768 Z-0.074346
G01 X2.314083 Y0.606759 Z-0.081104
G01 X2.330741 Y0.623417 Z-0.087863
G01 X2.351732 Y0.634112 Z-0.094622
G01 X2.375 Y0.637798 Z-0.10138
G01 X2.398268 Y0.634112 Z-0.108139
G01 X2.419259 Y0.623417 Z-0.114898
G01 X2.435917 Y0.606759 Z-0.121656
G01 X2.446612 Y0.585768 Z-0.128415
G01 X2.450298 Y0.5625 Z-0.135174
G01 X2.446612 Y0.539232 Z-0.141932
G01 X2.435917 Y0.518241 Z-0.148691
G01 X2.419259 Y0.501583 Z-0.15545
G01 X2.398268 Y0.490888 Z-0.162209
G01 X2.375 Y0.487203 Z-0.168967
G01 X2.351732 Y0.490888 Z-0.175726
G01 X2.330741 Y0.501583 Z-0.182485
G01 X2.314083 Y0.518241 Z-0.189243
G01 X2.303388 Y0.539232 Z-0.196002
G01 X2.299703 Y0.5625 Z-0.202761
G01 X2.303388 Y0.585768 Z-0.209519
G01 X2.314083 Y0.606759 Z-0.216278
G01 X2.330741 Y0.623417 Z-0.223037
G01 X2.351732 Y0.634112 Z-0.229795
G01 X2.375 Y0.637798 Z-0.236554
G01 X2.398268 Y0.634112 Z-0.243313
G01 X2.419259 Y0.623417 Z-0.250071
G01 X2.435917 Y0.606759 Z-0.251
G01 X2.446612 Y0.585768
G01 X2.450298 Y0.5625
G01 X2.446612 Y0.539232
G01 X2.435917 Y0.518241
G01 X2.419259 Y0.501583
G01 X2.398268 Y0.490888
G01 X2.375 Y0.487203
G01 X2.351732 Y0.490888
G01 X2.330741 Y0.501583
G01 X2.314083 Y0.518241
G01 X2.303388 Y0.539232
G01 X2.299703 Y0.5625
G01 X2.303388 Y0.585768
G01 X2.314083 Y0.606759
G01 X2.330741 Y0.623417
G01 X2.351732 Y0.634112
G01 X2.375 Y0.637798
G01 X2.398268 Y0.634112
G01 X2.419259 Y0.623417
G01 X2.435917 Y0.606759
G00 Z0.01
G00 X5.575298 Y0.5625
G01 F2 Z0
G01 F7 X5.571612 Y0.539232 Z-0.006759
G01 X5.560917 Y0.518241 Z-0.013517
G01 X5.544259 Y0.501583 Z-0.020276
G01 X5.523268 Y0.490888 Z-0.027035
G01 X5.5 Y0.487203 Z-0.033793
G01 X5.476732 Y0.490888 Z-0.040552
G01 X5.455741 Y0.501583 Z-0.047311
G01 X5.439083 Y0.518241 Z-0.05407
G01 X5.428388 Y0.539232 Z-0.060828
G01 X5.424703 Y0.5625 Z-0.067587
G01 X5.428388 Y0.585768 Z-0.074346
G01 X5.439083 Y0.606759 Z-0.081104
G01 X5.455741 Y0.623417 Z-0.087863
G01 X5.476732 Y0.634112 Z-0.094622
G01 X5.5 Y0.637798 Z-0.10138
G01 X5.523268 Y0.634112 Z-0.108139
G01 X5.544259 Y0.623417 Z-0.114898
G01 X5.560917 Y0.606759 Z-0.121656
G01 X5.571612 Y0.585768 Z-0.128415
G01 X5.575298 Y0.5625 Z-0.135174
G01 X5.571612 Y0.539232 Z-0.141932
G01 X5.560917 Y0.518241 Z-0.148691
G01 X5.544259 Y0.501583 Z-0.15545
G01 X5.523268 Y0.490888 Z-0.162209
G01 X5.5 Y0.487203 Z-0.168967
G01 X5.476732 Y0.490888 Z-0.175726
G01 X5.455741 Y0.501583 Z-0.182485
G01 X5.439083 Y0.518241 Z-0.189243
G01 X5.428388 Y0.539232 Z-0.196002
G01 X5.424703 Y0.5625 Z-0.202761
G01 X5.428388 Y0.585768 Z-0.209519
G01 X5.439083 Y0.606759 Z-0.216278
G01 X5.455741 Y0.623417 Z-0.223037
G01 X5.476732 Y0.634112 Z-0.229795
G01 X5.5 Y0.637798 Z-0.236554
G01 X5.523268 Y0.634112 Z-0.243313
G01 X5.544259 Y0.623417 Z-0.250071
G01 X5.560917 Y0.606759 Z-0.251
G01 X5.571612 Y0.585768
G01 X5.575298 Y0.5625
G01 X5.571612 Y0.539232
G01 X5.560917 Y0.518241
G01 X5.544259 Y0.501583
G01 X5.523268 Y0.490888
G01 X5.5 Y0.487203
G01 X5.476732 Y0.490888
G01 X5.455741 Y0.501583
G01 X5.439083 Y0.518241
G01 X5.428388 Y0.539232
G01 X5.424703 Y0.5625
G01 X5.428388 Y0.585768
G01 X5.439083 Y0.606759
G01 X5.455741 Y0.623417
G01 X5.476732 Y0.634112
G01 X5.5 Y0.637798
G01 X5.523268 Y0.634112
G01 X5.544259 Y0.623417
G01 X5.560917 Y0.606759
G00 Z0.01
M05
M30
